WordPressTheme/assets/images/common/CodeUps-price-whale.svg

<svg width="62" height="56" viewBox="0 0 62 56" fill="none" xmlns="http://www.w3.org/2000/svg">
<path d="M56.2626 25.3118C56.2561 25.005 56.1719 24.7049 56.0179 24.4395C55.585 23.6852 54.6325 23.2052 53.1891 23.0127C52.3539 22.9012 51.5686 22.7648 50.855 22.607C48.6676 22.1201 46.4261 21.9202 44.1871 22.0126C42.3034 22.0834 40.4247 22.2538 38.5589 22.5231C38.1636 22.5831 37.7045 22.6563 37.1955 22.7379C33.4157 23.3413 25.7258 24.5688 20.9493 23.6226C20.3004 22.3975 20.1886 21.3029 20.6174 20.3661C21.5484 18.3315 24.7006 17.3782 25.8419 17.094C27.1929 19.158 28.9101 20.4282 30.9502 20.8717C34.7449 21.6963 38.24 19.347 38.387 19.2468C38.4993 19.1701 38.584 19.0594 38.6287 18.931C38.6735 18.8026 38.676 18.6632 38.6359 18.5333C38.5957 18.4034 38.515 18.2897 38.4056 18.209C38.2962 18.1282 38.1639 18.0846 38.0279 18.0845C37.6831 18.0602 37.3504 17.9469 37.0624 17.7556C36.4271 17.3696 35.9075 16.8196 35.5582 16.1634C34.2579 13.7675 32.3808 12.8743 31.3026 12.5472C33.4971 7.29108 30.6438 3.8556 30.5152 3.70557L30.4977 3.68675C29.8095 2.94548 30.1965 1.60167 30.2001 1.59037C30.2362 1.47208 30.237 1.34585 30.2025 1.22709C30.168 1.10833 30.0997 1.00219 30.0058 0.921628C29.912 0.841062 29.7968 0.789557 29.6742 0.773402C29.5516 0.757247 29.4269 0.777141 29.3154 0.830654C26.2848 2.28138 24.4802 4.98407 24.0958 8.64618C23.9592 10.0364 24.0082 11.4386 24.2417 12.8158C22.7798 12.7177 21.3122 12.7492 19.8558 12.9099C19.2802 12.9664 8.3524 14.1379 3.50233 22.7747C1.36774 26.576 1.16821 31.1397 2.96812 34.9826C4.43635 38.1178 6.86365 40.5304 10.1858 42.1666C9.21483 43.1946 8.41764 44.3738 7.82553 45.658C5.77019 50.1108 1.42553 49.4575 1.24294 49.4276C1.1083 49.4048 0.969915 49.4259 0.848196 49.4878C0.726477 49.5497 0.627874 49.649 0.566935 49.7712C0.505995 49.8934 0.485948 50.032 0.50975 50.1664C0.533552 50.3009 0.599944 50.4241 0.699128 50.518C2.76445 52.4719 5.39917 53.6229 7.96143 53.4419C12.8232 53.0983 16.8027 48.8984 18.2869 47.091C18.8981 46.3367 19.5769 45.6398 20.3148 45.0089C20.3425 45.0117 20.3703 45.0126 20.3981 45.0117C23.4888 44.8147 27.4524 45.0287 27.4826 45.0306C27.5872 45.0379 27.6896 45.043 27.7939 45.0494C26.6099 45.8888 25.6314 46.9855 24.9318 48.2571C23.9091 50.0918 21.2889 53.923 17.2348 53.9503C17.9648 53.3989 18.5354 52.6638 18.8885 51.82C19.2416 50.9762 19.3645 50.0538 19.2448 49.1469C19.2369 49.0627 19.2124 48.981 19.1726 48.9064C19.1328 48.8318 19.0785 48.7659 19.013 48.7125C18.9475 48.6591 18.872 48.6193 18.7909 48.5954C18.7098 48.5715 18.6248 48.564 18.5408 48.5733C18.4567 48.5826 18.3754 48.6085 18.3015 48.6496C18.2276 48.6906 18.1627 48.746 18.1104 48.8124C18.0581 48.8788 18.0196 48.955 17.997 49.0365C17.9745 49.1179 17.9684 49.2031 17.9791 49.2869C18.0993 50.2371 17.8768 51.1991 17.3516 52C16.7829 52.8128 15.9504 53.4036 14.9954 53.6721C14.8561 53.7016 14.7306 53.777 14.6392 53.8862C14.5478 53.9955 14.4956 54.1322 14.491 54.2746C14.4864 54.4169 14.5297 54.5567 14.614 54.6716C14.6982 54.7865 14.8185 54.8698 14.9557 54.9082C15.6961 55.1195 16.4619 55.2284 17.2318 55.2318C21.9349 55.2318 24.8956 50.9374 26.0443 48.8764C26.7127 47.6507 27.6819 46.6151 28.8606 45.8671C29.3069 45.592 29.7751 45.3541 30.2604 45.1557C30.2679 45.1525 30.2741 45.1478 30.2814 45.1444C30.4806 45.1469 30.6799 45.1497 30.8768 45.1497C43.7886 45.1497 51.5942 39.8119 54.4889 37.3671C55.1775 36.785 56.0498 36.4649 56.9516 36.4636H58.528C59.189 36.4725 59.8375 36.283 60.3897 35.9196C61.7935 34.9716 61.5987 33.4426 61.2527 32.6336C61.2768 31.6602 61.1221 27.0876 56.2626 25.3118ZM17.3028 46.2831C16.2272 47.5926 12.3695 51.8885 7.88143 52.1711C6.14666 52.2803 4.47758 51.779 2.90016 50.6791C4.72096 50.4636 7.43456 49.5441 8.98713 46.1803C9.00426 46.1412 10.7387 42.2496 13.4538 41.5708C13.6164 41.5287 13.7558 41.4241 13.8417 41.2797C13.9276 41.1354 13.9529 40.9629 13.9122 40.7999C13.8714 40.6369 13.768 40.4966 13.6243 40.4096C13.4806 40.3226 13.3084 40.2958 13.1451 40.3352C12.4562 40.5169 11.8084 40.8287 11.2367 41.2538C7.92849 39.7464 5.5332 37.4573 4.12143 34.4425C2.49508 30.9709 2.6788 26.8423 4.61273 23.3986C9.15767 15.3044 19.8786 14.1871 19.9863 14.1769C19.9891 14.1769 19.9916 14.1756 19.9944 14.1752C19.9972 14.1748 19.9998 14.1752 20.0025 14.1752C20.0296 14.172 22.7164 13.8541 24.9504 14.1735C25.0545 14.1883 25.1606 14.177 25.2593 14.1408C25.358 14.1046 25.4462 14.0446 25.516 13.966C25.5859 13.8875 25.6352 13.7929 25.6597 13.6907C25.6841 13.5884 25.6829 13.4818 25.6561 13.3801C25.3082 11.8602 25.2101 10.2938 25.3657 8.74237C25.665 5.97042 26.8249 3.90021 28.8188 2.57145C28.8178 3.29421 29.0778 3.99303 29.5511 4.53927C29.7339 4.76138 32.1999 7.90247 29.8259 12.7166C29.7802 12.8093 29.7577 12.9117 29.7604 13.015C29.7631 13.1183 29.7909 13.2195 29.8414 13.3096C29.892 13.3998 29.9637 13.4763 30.0504 13.5325C30.1372 13.5887 30.2363 13.623 30.3392 13.6323C30.3644 13.6346 32.8768 13.8947 34.4397 16.7717C34.8984 17.6293 35.5796 18.3475 36.4119 18.8506C36.4187 18.8544 36.4254 18.8585 36.4322 18.8627C35.2062 19.4227 33.2251 20.0674 31.2128 19.6261C29.4058 19.2308 27.8826 18.0261 26.6861 16.0444C26.619 15.9334 26.5196 15.8455 26.4011 15.7925C26.2827 15.7395 26.1509 15.724 26.0234 15.7479C25.814 15.7871 20.8761 16.7478 19.4611 19.8338C18.9905 20.8621 18.9619 21.9855 19.373 23.1862C18.7279 22.9634 18.1382 22.6045 17.6439 22.1338C17.2715 21.769 16.9889 21.3227 16.8183 20.8301C16.7926 20.7502 16.7514 20.6761 16.697 20.6122C16.6426 20.5483 16.5761 20.4958 16.5013 20.4577C16.4266 20.4195 16.345 20.3966 16.2613 20.3901C16.1777 20.3836 16.0935 20.3937 16.0138 20.4199C15.934 20.4461 15.8602 20.4877 15.7967 20.5425C15.7331 20.5973 15.6809 20.6641 15.6433 20.7391C15.6056 20.8141 15.5831 20.8958 15.5772 20.9795C15.5712 21.0632 15.5818 21.1473 15.6085 21.2269C15.8396 21.9063 16.2258 22.5226 16.7364 23.027C20.3671 26.7151 31.4451 24.9459 37.3967 23.9955C37.9018 23.9147 38.3567 23.842 38.75 23.7826C40.5706 23.5202 42.4038 23.3542 44.2419 23.2852C46.3702 23.1973 48.5008 23.3871 50.58 23.8499C51.3286 24.0154 52.1497 24.1585 53.0205 24.2746C54.3503 24.4519 54.7125 24.7778 54.9875 25.3041C54.6884 25.4002 54.3796 25.4634 54.0667 25.4923C53.5597 25.5417 53.0486 25.5299 52.5444 25.4569C49.2179 25.0393 45.8413 25.5757 42.8079 27.0035C40.6967 28.0323 38.8412 29.5185 37.3762 31.3541C35.9934 33.0528 32.1433 37.0091 26.2733 37.056C26.1063 37.0594 25.9474 37.1284 25.8307 37.2479C25.7141 37.3675 25.6491 37.5281 25.6497 37.6952C25.6504 37.8622 25.7167 38.0223 25.8343 38.1409C25.9519 38.2596 26.1114 38.3273 26.2784 38.3294H26.2837C32.6944 38.2784 36.8674 33.9966 38.3637 32.1581C39.7104 30.4686 41.4164 29.1002 43.358 28.1523C46.1667 26.8292 49.2938 26.3321 52.3744 26.719C52.9803 26.8055 53.5944 26.8187 54.2035 26.7584C54.6846 26.7163 55.1574 26.6061 55.6076 26.4312C58.7168 27.4723 59.6332 29.7818 59.8914 31.2915C58.7853 30.5433 57.4887 30.1264 56.1538 30.0899H56.1463C49.0758 29.4737 43.1804 34.8696 42.7251 35.2979C37.4626 39.5341 28.8898 40.6061 28.8044 40.6166C28.7919 40.6181 28.7791 40.6202 28.7667 40.6223L24.3272 41.4266C24.0885 41.4627 22.1636 41.811 19.5891 43.9533C18.7545 44.6552 17.9889 45.4354 17.3028 46.2831ZM53.6405 36.4171C51.9334 37.8292 50.0684 39.0386 48.0828 40.0212C48.6036 39.1843 49.0335 38.2942 49.3653 37.366C49.4234 37.2074 49.4161 37.0323 49.3451 36.8791C49.274 36.7259 49.145 36.6072 48.9865 36.5491C48.908 36.5204 48.8246 36.5074 48.741 36.5108C48.6575 36.5143 48.5754 36.5342 48.4996 36.5694C48.3464 36.6404 48.2277 36.7694 48.1696 36.928C46.8896 40.4229 45.1931 41.2979 45.1505 41.3189C45.1449 41.3216 45.1404 41.3255 45.1349 41.3282C43.9666 41.7808 42.7753 42.1717 41.5659 42.4994C42.336 41.5356 42.9179 40.4357 43.2813 39.2568C44.394 35.8466 45.5966 34.6908 45.7743 34.534C47.1541 33.5876 48.6437 32.8122 50.2105 32.2251C49.8236 32.7849 49.4907 33.3801 49.2162 34.0028C49.1795 34.0787 49.1587 34.1613 49.155 34.2455C49.1513 34.3297 49.1649 34.4138 49.1949 34.4926C49.2248 34.5713 49.2705 34.6432 49.3292 34.7037C49.3879 34.7642 49.4584 34.8121 49.5362 34.8444C49.6922 34.8916 49.8594 34.8858 50.0117 34.8279C50.164 34.77 50.2928 34.6633 50.378 34.5244C51.4468 32.1457 52.6161 31.5953 52.8038 31.5196C53.8788 31.3226 54.9752 31.2697 56.0642 31.3622C56.0874 31.3643 56.1126 31.3649 56.1361 31.3647H56.1532C55.7547 32.0077 55.4557 32.7072 55.2663 33.4396C54.9521 34.5405 54.3967 35.5576 53.6405 36.4171ZM35.1838 43.6642C35.578 43.2066 35.901 42.6922 36.1418 42.1383C36.1448 42.1312 36.148 42.1236 36.1508 42.1165C36.1572 42.1005 36.7707 40.5703 37.6379 39.6069C39.4841 38.8904 41.235 37.9491 42.851 36.8043C42.5568 37.4764 42.2964 38.1629 42.071 38.8611C40.9404 42.3271 38.9011 43.0882 38.6882 43.1591C37.5774 43.3701 36.4109 43.5427 35.1838 43.6647V43.6642ZM22.1862 43.6655C23.5804 42.8393 24.4877 42.691 24.5167 42.6867C24.5211 42.6867 24.525 42.6842 24.5293 42.6836C24.5337 42.6831 24.5399 42.6836 24.5453 42.6821L28.6075 41.9461C28.1992 42.6533 27.6411 43.2624 26.9723 43.7308C26.038 43.6913 24.1324 43.6271 22.1862 43.666V43.6655ZM28.7932 43.8277C29.3698 43.2103 29.8246 42.4894 30.1335 41.7031C31.9828 41.3807 33.8069 40.9278 35.5923 40.3478C35.3608 40.7652 35.1534 41.1954 34.9711 41.6365C34.3052 43.145 33.2341 43.6977 32.9382 43.8262C31.617 43.887 30.2361 43.8925 28.7929 43.8283L28.7932 43.8277ZM59.6772 34.8647C59.3355 35.0853 58.9356 35.1988 58.529 35.1906H56.9516C56.6001 35.1917 56.2497 35.2296 55.9061 35.3035C56.1507 34.8143 56.3476 34.3026 56.4941 33.7756C56.8518 32.4768 57.3536 31.8311 57.5724 31.5973C58.5291 31.8711 59.3943 32.3978 60.0768 33.122C60.1894 33.3852 60.5071 34.3045 59.6768 34.8653L59.6772 34.8647Z" fill="white"/>
</svg>

<svg width="62" height="56" fill="none" xmlns="http://www.w3.org/2000/svg"><path d="M56.263 25.312a1.815 1.815 0 00-.245-.873c-.433-.754-1.386-1.234-2.829-1.426a28.136 28.136 0 01-2.334-.406 25.794 25.794 0 00-6.668-.594c-1.884.07-3.762.24-5.628.51-.395.06-.854.133-1.363.215-3.78.603-11.47 1.83-16.247.885-.649-1.226-.76-2.32-.332-3.257.931-2.035 4.084-2.988 5.225-3.272 1.35 2.064 3.068 3.334 5.108 3.778 3.795.824 7.29-1.525 7.437-1.625a.635.635 0 00-.36-1.163 1.999 1.999 0 01-.965-.328 4.138 4.138 0 01-1.504-1.593c-1.3-2.396-3.177-3.289-4.255-3.616 2.194-5.256-.66-8.691-.788-8.841l-.017-.02c-.689-.74-.302-2.084-.298-2.096a.636.636 0 00-.885-.76c-3.03 1.451-4.835 4.154-5.22 7.816a15.738 15.738 0 00.147 4.17 24.83 24.83 0 00-4.386.094c-.576.056-11.504 1.228-16.354 9.865-2.134 3.801-2.334 8.365-.534 12.208 1.468 3.135 3.896 5.547 7.218 7.184a13.03 13.03 0 00-2.36 3.491c-2.056 4.453-6.4 3.8-6.583 3.77a.636.636 0 00-.544 1.09c2.065 1.954 4.7 3.105 7.262 2.924 4.862-.344 8.842-4.544 10.326-6.351a15.954 15.954 0 012.028-2.082.57.57 0 00.083.003c3.09-.197 7.054.017 7.085.019l.31.018a9.611 9.611 0 00-2.861 3.208c-1.023 1.835-3.643 5.666-7.697 5.693a5.172 5.172 0 002.01-4.803.637.637 0 10-1.266.14c.12.95-.102 1.912-.627 2.713a4.294 4.294 0 01-2.357 1.672.637.637 0 00-.04 1.236 8.43 8.43 0 002.277.324c4.703 0 7.664-4.295 8.812-6.356a8.232 8.232 0 012.817-3.009 9.567 9.567 0 011.4-.711c.007-.003.013-.008.02-.012.2.003.399.006.596.006 12.912 0 20.717-5.338 23.612-7.783a3.823 3.823 0 012.463-.903h1.576a3.316 3.316 0 001.862-.544c1.404-.948 1.209-2.477.863-3.286.024-.974-.13-5.546-4.99-7.322zm-38.96 20.971c-1.076 1.31-4.934 5.605-9.422 5.888-1.734.11-3.403-.392-4.98-1.492 1.82-.215 4.534-1.135 6.086-4.499.017-.039 1.752-3.93 4.467-4.61a.637.637 0 00-.309-1.235 5.586 5.586 0 00-1.908.919c-3.309-1.508-5.704-3.797-7.116-6.811-1.626-3.472-1.442-7.6.492-11.044 4.545-8.095 15.266-9.212 15.373-9.222l.008-.002h.009c.027-.003 2.713-.32 4.947-.002a.637.637 0 00.706-.793 14.362 14.362 0 01-.29-4.638c.299-2.772 1.459-4.842 3.453-6.17a2.999 2.999 0 00.732 1.967c.183.222 2.649 3.363.275 8.178a.637.637 0 00.513.915c.025.003 2.538.263 4.1 3.14a5.411 5.411 0 001.993 2.09c-1.226.56-3.207 1.205-5.22.764-1.806-.395-3.33-1.6-4.526-3.582a.637.637 0 00-.663-.296c-.209.04-5.147 1-6.562 4.086-.47 1.028-.5 2.151-.088 3.352a4.761 4.761 0 01-1.73-1.052 3.368 3.368 0 01-.825-1.304.637.637 0 10-1.21.397c.232.68.618 1.296 1.128 1.8 3.631 3.688 14.71 1.919 20.66.968.506-.08.96-.153 1.354-.212a52.233 52.233 0 015.492-.498 24.515 24.515 0 016.338.565c.749.165 1.57.308 2.44.425 1.33.177 1.692.503 1.967 1.03a4.367 4.367 0 01-.92.187 6.336 6.336 0 01-1.523-.035 17.689 17.689 0 00-9.736 1.546 15.811 15.811 0 00-5.432 4.351c-1.383 1.699-5.233 5.655-11.103 5.702a.637.637 0 00.005 1.273h.006c6.41-.05 10.583-4.332 12.08-6.17a14.55 14.55 0 014.994-4.007 16.37 16.37 0 019.016-1.433c.606.086 1.22.1 1.83.04a5.107 5.107 0 001.404-.328c3.109 1.041 4.025 3.35 4.283 4.86a7.013 7.013 0 00-3.737-1.201h-.008c-7.07-.616-12.966 4.78-13.42 5.208-5.263 4.236-13.836 5.308-13.922 5.319a.797.797 0 00-.037.005l-4.44.805c-.239.036-2.163.384-4.738 2.526-.834.702-1.6 1.482-2.286 2.33zm36.338-9.866a28.668 28.668 0 01-5.558 3.604c.52-.837.95-1.727 1.282-2.655a.637.637 0 10-1.195-.438c-1.28 3.495-2.977 4.37-3.02 4.39a.065.065 0 01-.015.01c-1.168.453-2.36.844-3.57 1.171a9.836 9.836 0 001.716-3.242c1.113-3.41 2.316-4.566 2.493-4.723a20.659 20.659 0 014.437-2.309c-.387.56-.72 1.155-.995 1.778a.62.62 0 00.32.841.737.737 0 00.842-.32c1.069-2.378 2.238-2.929 2.426-3.004a12.308 12.308 0 013.26-.158.748.748 0 00.072.003h.017a7.506 7.506 0 00-.887 2.075 7.712 7.712 0 01-1.625 2.977zm-18.457 7.247a6.008 6.008 0 00.967-1.547c.006-.017.62-1.547 1.487-2.51a24.106 24.106 0 005.213-2.803 21.933 21.933 0 00-.78 2.057c-1.13 3.466-3.17 4.227-3.383 4.298-1.11.211-2.277.384-3.504.506zm-12.998.002c1.394-.827 2.302-.975 2.33-.98l.013-.002c.005 0 .01 0 .016-.002l4.063-.736a5.593 5.593 0 01-1.636 1.785c-.934-.04-2.84-.104-4.786-.065zm6.607.162a6.705 6.705 0 001.34-2.125 39.782 39.782 0 005.46-1.355c-.232.417-.44.847-.622 1.288-.666 1.509-1.737 2.062-2.033 2.19a45.796 45.796 0 01-4.145.002zm30.884-8.963c-.341.22-.741.334-1.148.326h-1.577a5.047 5.047 0 00-1.046.112c.245-.489.442-1 .588-1.527.358-1.3.86-1.945 1.078-2.179.957.274 1.822.8 2.505 1.525.112.263.43 1.182-.4 1.743z" fill="#fff"/></svg>
